src/images/svg/symbols/boom-indices-300.svg

<svg width="32" height="32" viewBox="0 0 32 32" fill="none" xmlns="http://www.w3.org/2000/svg">
<path d="M13 22H4C2.89543 22 2 22.8954 2 24V28C2 29.1046 2.89543 30 4 30H13C14.1046 30 15 29.1046 15 28V24C15 22.8954 14.1046 22 13 22Z" fill="#84AAAF"/>
<path d="M4.71936 25.628C4.97936 25.628 5.17136 25.574 5.29536 25.466C5.41936 25.354 5.48136 25.212 5.48136 25.04V24.998C5.48136 24.806 5.42136 24.66 5.30136 24.56C5.18136 24.456 5.01936 24.404 4.81536 24.404C4.61536 24.404 4.44536 24.45 4.30536 24.542C4.16536 24.63 4.04736 24.754 3.95136 24.914L3.50136 24.524C3.56536 24.432 3.63736 24.344 3.71736 24.26C3.79736 24.176 3.89136 24.104 3.99936 24.044C4.10736 23.98 4.22936 23.93 4.36536 23.894C4.50136 23.854 4.65736 23.834 4.83336 23.834C5.02936 23.834 5.21136 23.858 5.37936 23.906C5.54736 23.954 5.69136 24.026 5.81136 24.122C5.93136 24.214 6.02536 24.328 6.09336 24.464C6.16136 24.596 6.19536 24.746 6.19536 24.914C6.19536 25.046 6.17336 25.166 6.12936 25.274C6.08936 25.382 6.03136 25.478 5.95536 25.562C5.88336 25.642 5.79736 25.708 5.69736 25.76C5.60136 25.812 5.49936 25.85 5.39136 25.874V25.904C5.51136 25.928 5.62336 25.968 5.72736 26.024C5.83536 26.076 5.92936 26.146 6.00936 26.234C6.08936 26.318 6.15136 26.42 6.19536 26.54C6.24336 26.656 6.26736 26.79 6.26736 26.942C6.26736 27.126 6.23136 27.294 6.15936 27.446C6.08736 27.594 5.98536 27.722 5.85336 27.83C5.72536 27.938 5.56936 28.022 5.38536 28.082C5.20136 28.138 4.99736 28.166 4.77336 28.166C4.57736 28.166 4.40536 28.144 4.25736 28.1C4.10936 28.06 3.97736 28.006 3.86136 27.938C3.74936 27.866 3.64936 27.786 3.56136 27.698C3.47736 27.606 3.40336 27.512 3.33936 27.416L3.83736 27.026C3.88936 27.11 3.94336 27.188 3.99936 27.26C4.05936 27.328 4.12536 27.388 4.19736 27.44C4.27336 27.488 4.35736 27.526 4.44936 27.554C4.54536 27.582 4.65336 27.596 4.77336 27.596C5.02936 27.596 5.22536 27.536 5.36136 27.416C5.49736 27.292 5.56536 27.122 5.56536 26.906V26.864C5.56536 26.648 5.49336 26.484 5.34936 26.372C5.20536 26.26 5.00136 26.204 4.73736 26.204H4.29336V25.628H4.71936Z" fill="white"/>
<path d="M8.54501 28.166C8.28501 28.166 8.05901 28.118 7.86701 28.022C7.67501 27.922 7.51701 27.78 7.39301 27.596C7.26901 27.412 7.17701 27.186 7.11701 26.918C7.05701 26.65 7.02701 26.344 7.02701 26C7.02701 25.66 7.05701 25.356 7.11701 25.088C7.17701 24.816 7.26901 24.588 7.39301 24.404C7.51701 24.22 7.67501 24.08 7.86701 23.984C8.05901 23.884 8.28501 23.834 8.54501 23.834C9.06501 23.834 9.44701 24.024 9.69101 24.404C9.93901 24.784 10.063 25.316 10.063 26C10.063 26.684 9.93901 27.216 9.69101 27.596C9.44701 27.976 9.06501 28.166 8.54501 28.166ZM8.54501 27.59C8.68901 27.59 8.81101 27.562 8.91101 27.506C9.01501 27.446 9.09901 27.362 9.16301 27.254C9.22701 27.146 9.27301 27.018 9.30101 26.87C9.32901 26.718 9.34301 26.55 9.34301 26.366V25.634C9.34301 25.45 9.32901 25.284 9.30101 25.136C9.27301 24.984 9.22701 24.854 9.16301 24.746C9.09901 24.638 9.01501 24.556 8.91101 24.5C8.81101 24.44 8.68901 24.41 8.54501 24.41C8.40101 24.41 8.27701 24.44 8.17301 24.5C8.07301 24.556 7.99101 24.638 7.92701 24.746C7.86301 24.854 7.81701 24.984 7.78901 25.136C7.76101 25.284 7.74701 25.45 7.74701 25.634V26.366C7.74701 26.55 7.76101 26.718 7.78901 26.87C7.81701 27.018 7.86301 27.146 7.92701 27.254C7.99101 27.362 8.07301 27.446 8.17301 27.506C8.27701 27.562 8.40101 27.59 8.54501 27.59Z" fill="white"/>
<path d="M12.1427 28.166C11.8827 28.166 11.6567 28.118 11.4647 28.022C11.2727 27.922 11.1147 27.78 10.9907 27.596C10.8667 27.412 10.7747 27.186 10.7147 26.918C10.6547 26.65 10.6247 26.344 10.6247 26C10.6247 25.66 10.6547 25.356 10.7147 25.088C10.7747 24.816 10.8667 24.588 10.9907 24.404C11.1147 24.22 11.2727 24.08 11.4647 23.984C11.6567 23.884 11.8827 23.834 12.1427 23.834C12.6627 23.834 13.0447 24.024 13.2887 24.404C13.5367 24.784 13.6607 25.316 13.6607 26C13.6607 26.684 13.5367 27.216 13.2887 27.596C13.0447 27.976 12.6627 28.166 12.1427 28.166ZM12.1427 27.59C12.2867 27.59 12.4087 27.562 12.5087 27.506C12.6127 27.446 12.6967 27.362 12.7607 27.254C12.8247 27.146 12.8707 27.018 12.8987 26.87C12.9267 26.718 12.9407 26.55 12.9407 26.366V25.634C12.9407 25.45 12.9267 25.284 12.8987 25.136C12.8707 24.984 12.8247 24.854 12.7607 24.746C12.6967 24.638 12.6127 24.556 12.5087 24.5C12.4087 24.44 12.2867 24.41 12.1427 24.41C11.9987 24.41 11.8747 24.44 11.7707 24.5C11.6707 24.556 11.5887 24.638 11.5247 24.746C11.4607 24.854 11.4147 24.984 11.3867 25.136C11.3587 25.284 11.3447 25.45 11.3447 25.634V26.366C11.3447 26.55 11.3587 26.718 11.3867 26.87C11.4147 27.018 11.4607 27.146 11.5247 27.254C11.5887 27.362 11.6707 27.446 11.7707 27.506C11.8747 27.562 11.9987 27.59 12.1427 27.59Z" fill="white"/>
<path d="M29.5 20H29C28.7239 20 28.5 19.7761 28.5 19.5C28.5 19.2239 28.7239 19 29 19H29.5C29.7761 19 30 19.2239 30 19.5C30 19.7761 29.7761 20 29.5 20Z" fill="#E4E4E4"/>
<path d="M27 20H26C25.7239 20 25.5 19.7761 25.5 19.5C25.5 19.2239 25.7239 19 26 19H27C27.2761 19 27.5 19.2239 27.5 19.5C27.5 19.7761 27.2761 20 27 20ZM24 20H23C22.7239 20 22.5 19.7761 22.5 19.5C22.5 19.2239 22.7239 19 23 19H24C24.2761 19 24.5 19.2239 24.5 19.5C24.5 19.7761 24.2761 20 24 20ZM21 20H20C19.7239 20 19.5 19.7761 19.5 19.5C19.5 19.2239 19.7239 19 20 19H21C21.2761 19 21.5 19.2239 21.5 19.5C21.5 19.7761 21.2761 20 21 20ZM18 20H17C16.7239 20 16.5 19.7761 16.5 19.5C16.5 19.2239 16.7239 19 17 19H18C18.2761 19 18.5 19.2239 18.5 19.5C18.5 19.7761 18.2761 20 18 20ZM15 20H14C13.7239 20 13.5 19.7761 13.5 19.5C13.5 19.2239 13.7239 19 14 19H15C15.2761 19 15.5 19.2239 15.5 19.5C15.5 19.7761 15.2761 20 15 20ZM12 20H11C10.7239 20 10.5 19.7761 10.5 19.5C10.5 19.2239 10.7239 19 11 19H12C12.2761 19 12.5 19.2239 12.5 19.5C12.5 19.7761 12.2761 20 12 20ZM9 20H8C7.72386 20 7.5 19.7761 7.5 19.5C7.5 19.2239 7.72386 19 8 19H9C9.27614 19 9.5 19.2239 9.5 19.5C9.5 19.7761 9.27614 20 9 20ZM6 20H5C4.72386 20 4.5 19.7761 4.5 19.5C4.5 19.2239 4.72386 19 5 19H6C6.27614 19 6.5 19.2239 6.5 19.5C6.5 19.7761 6.27614 20 6 20Z" fill="#E4E4E4"/>
<path d="M3 20H2.5C2.22386 20 2 19.7761 2 19.5C2 19.2239 2.22386 19 2.5 19H3C3.27614 19 3.5 19.2239 3.5 19.5C3.5 19.7761 3.27614 20 3 20Z" fill="#E4E4E4"/>
<path d="M29.5 9H29C28.7239 9 28.5 8.77614 28.5 8.5C28.5 8.22386 28.7239 8 29 8H29.5C29.7761 8 30 8.22386 30 8.5C30 8.77614 29.7761 9 29.5 9Z" fill="#E4E4E4"/>
<path d="M27 9H26C25.7239 9 25.5 8.77614 25.5 8.5C25.5 8.22386 25.7239 8 26 8H27C27.2761 8 27.5 8.22386 27.5 8.5C27.5 8.77614 27.2761 9 27 9ZM24 9H23C22.7239 9 22.5 8.77614 22.5 8.5C22.5 8.22386 22.7239 8 23 8H24C24.2761 8 24.5 8.22386 24.5 8.5C24.5 8.77614 24.2761 9 24 9ZM21 9H20C19.7239 9 19.5 8.77614 19.5 8.5C19.5 8.22386 19.7239 8 20 8H21C21.2761 8 21.5 8.22386 21.5 8.5C21.5 8.77614 21.2761 9 21 9ZM18 9H17C16.7239 9 16.5 8.77614 16.5 8.5C16.5 8.22386 16.7239 8 17 8H18C18.2761 8 18.5 8.22386 18.5 8.5C18.5 8.77614 18.2761 9 18 9ZM15 9H14C13.7239 9 13.5 8.77614 13.5 8.5C13.5 8.22386 13.7239 8 14 8H15C15.2761 8 15.5 8.22386 15.5 8.5C15.5 8.77614 15.2761 9 15 9ZM9 9H8C7.72386 9 7.5 8.77614 7.5 8.5C7.5 8.22386 7.72386 8 8 8H9C9.27614 8 9.5 8.22386 9.5 8.5C9.5 8.77614 9.27614 9 9 9ZM6 9H5C4.72386 9 4.5 8.77614 4.5 8.5C4.5 8.22386 4.72386 8 5 8H6C6.27614 8 6.5 8.22386 6.5 8.5C6.5 8.77614 6.27614 9 6 9Z" fill="#E4E4E4"/>
<path d="M29.8499 25.1504L27.8499 23.1504C27.8076 23.0998 27.7523 23.0618 27.6899 23.0404C27.5681 22.9904 27.4316 22.9904 27.3099 23.0404C27.2475 23.0618 27.1921 23.0998 27.1499 23.1504L25.1499 25.1504C24.9566 25.3437 24.9566 25.6571 25.1499 25.8504C25.3432 26.0437 25.6566 26.0437 25.8499 25.8504L26.9999 24.7104V29.5004C26.9999 29.7766 27.2237 30.0004 27.4999 30.0004C27.776 30.0004 27.9999 29.7766 27.9999 29.5004V24.7104L29.1499 25.8504C29.2406 25.9471 29.3673 26.002 29.4999 26.002C29.6324 26.002 29.7591 25.9471 29.8499 25.8504C29.9465 25.7597 30.0014 25.633 30.0014 25.5004C30.0014 25.3678 29.9465 25.2412 29.8499 25.1504Z" fill="#84AAAF"/>
<path d="M28.5001 2C27.8616 2.00258 27.2947 2.40906 27.0874 3.01296C26.8801 3.61686 27.0778 4.28581 27.5801 4.68L23.8001 16C23.7003 15.9902 23.5999 15.9902 23.5001 16C23.3401 16.0006 23.1813 16.0276 23.0301 16.08L20.6601 10.45C20.7294 10.3594 20.7897 10.2623 20.8401 10.16C20.9116 10.0418 20.9655 9.91378 21.0001 9.78C21.0099 9.69027 21.0099 9.59973 21.0001 9.51C21.0001 9.51 21.0001 9.51 21.0001 9.45C21.0046 9.41347 21.0046 9.37653 21.0001 9.34C20.9931 9.25502 20.9763 9.17114 20.9501 9.09C20.9548 9.07027 20.9548 9.04973 20.9501 9.03C20.9092 8.89639 20.8448 8.77111 20.7601 8.66L20.7101 8.6C20.6328 8.50102 20.5419 8.41349 20.4401 8.34C20.3071 8.23467 20.1587 8.15036 20.0001 8.09H19.9101C19.7795 8.05469 19.6453 8.03456 19.5101 8.03C19.3642 8.03297 19.2194 8.05654 19.0801 8.1H19.0001L18.8501 8.17L18.7301 8.23L18.6101 8.32L18.5001 8.41L18.4101 8.52C18.3717 8.55169 18.338 8.58873 18.3101 8.63C18.2831 8.66775 18.2597 8.70792 18.2401 8.75C18.2109 8.78992 18.1874 8.83367 18.1701 8.88C18.1491 8.92154 18.1323 8.96509 18.1201 9.01L18.0001 9.15C18.0001 9.15 18.0001 9.24 18.0001 9.29C17.9948 9.3432 17.9948 9.3968 18.0001 9.45C17.9954 9.46633 17.9954 9.48367 18.0001 9.5C18.0001 9.5 18.0001 9.56 18.0001 9.59C18.0001 9.62 18.0001 9.69 18.0001 9.74C18.0001 9.79 18.0001 9.85 18.0001 9.9C18.0001 9.95 18.0001 9.96 18.0001 9.98C18.0689 10.1739 18.178 10.3512 18.3201 10.5L15.6801 16H15.5001H15.3501L12.6801 10.39C12.8826 10.1371 12.9951 9.82396 13.0001 9.5C13.0001 8.67157 12.3285 8 11.5001 8C10.6717 8 10.0001 8.67157 10.0001 9.5C10.0006 9.83083 10.1134 10.1517 10.3201 10.41L7.6501 16H7.5001H7.3201L4.5801 10.54C5.07443 10.0262 5.13879 9.23546 4.73406 8.64849C4.32932 8.06153 3.56734 7.84058 2.91138 8.11996C2.25542 8.39935 1.88677 9.10187 2.02956 9.80041C2.17235 10.4989 2.78712 11.0004 3.5001 11H3.6801L6.4201 16.48C5.84194 17.0685 5.84751 18.0134 6.43257 18.595C7.01763 19.1766 7.96256 19.1766 8.54763 18.595C9.13269 18.0134 9.13826 17.0685 8.5601 16.48L11.1601 11C11.3836 11.0535 11.6166 11.0535 11.8401 11L14.4401 16.48C13.8619 17.0685 13.8675 18.0134 14.4526 18.595C15.0376 19.1766 15.9826 19.1766 16.5676 18.595C17.1527 18.0134 17.1583 17.0685 16.5801 16.48L19.3201 11H19.5001H19.7301H19.7901L22.2201 16.77C22.0757 16.9971 21.9994 17.2609 22.0001 17.53C22.0001 18.3584 22.6717 19.03 23.5001 19.03C24.3285 19.03 25.0001 18.3584 25.0001 17.53C24.9958 17.1921 24.8798 16.865 24.6701 16.6L28.5301 5C29.3585 5 30.0301 4.32843 30.0301 3.5C30.0301 2.67157 29.3585 2 28.5301 2H28.5001ZM3.5001 10C3.22396 10 3.0001 9.77614 3.0001 9.5C3.0001 9.22386 3.22396 9 3.5001 9C3.77624 9 4.0001 9.22386 4.0001 9.5C4.0001 9.77614 3.77624 10 3.5001 10ZM7.5001 18C7.22396 18 7.0001 17.7761 7.0001 17.5C7.0001 17.2239 7.22396 17 7.5001 17C7.77624 17 8.0001 17.2239 8.0001 17.5C8.0001 17.7761 7.77624 18 7.5001 18ZM11.5001 10C11.224 10 11.0001 9.77614 11.0001 9.5C11.0001 9.22386 11.224 9 11.5001 9C11.7762 9 12.0001 9.22386 12.0001 9.5C12.0001 9.77614 11.7762 10 11.5001 10ZM15.5001 18C15.224 18 15.0001 17.7761 15.0001 17.5C15.0001 17.2239 15.224 17 15.5001 17C15.7762 17 16.0001 17.2239 16.0001 17.5C16.0001 17.7761 15.7762 18 15.5001 18ZM19.5001 10C19.224 10 19.0001 9.77614 19.0001 9.5C19.0001 9.22386 19.224 9 19.5001 9C19.7762 9 20.0001 9.22386 20.0001 9.5C20.0001 9.77614 19.7762 10 19.5001 10ZM23.5001 18C23.224 18 23.0001 17.7761 23.0001 17.5C23.0001 17.2239 23.224 17 23.5001 17C23.7762 17 24.0001 17.2239 24.0001 17.5C24.0001 17.7761 23.7762 18 23.5001 18ZM28.5001 4C28.224 4 28.0001 3.77614 28.0001 3.5C28.0001 3.22386 28.224 3 28.5001 3C28.7762 3 29.0001 3.22386 29.0001 3.5C29.0001 3.77614 28.7762 4 28.5001 4Z" fill="#58595B"/>
</svg>

<svg width="32" height="32" fill="none" xmlns="http://www.w3.org/2000/svg"><path d="M13 22H4a2 2 0 0 0-2 2v4a2 2 0 0 0 2 2h9a2 2 0 0 0 2-2v-4a2 2 0 0 0-2-2Z" fill="#84AAAF"/><path d="M4.72 25.628c.26 0 .451-.054.575-.162a.549.549 0 0 0 .186-.426v-.042c0-.192-.06-.338-.18-.438-.12-.104-.282-.156-.486-.156-.2 0-.37.046-.51.138-.14.088-.258.212-.354.372l-.45-.39c.064-.092.136-.18.216-.264a1.433 1.433 0 0 1 .648-.366c.136-.04.292-.06.468-.06.196 0 .378.024.546.072.168.048.312.12.432.216a.974.974 0 0 1 .384.792.946.946 0 0 1-.066.36.881.881 0 0 1-.432.486c-.096.052-.198.09-.306.114v.03c.12.024.232.064.336.12a.912.912 0 0 1 .468.516c.048.116.072.25.072.402 0 .184-.036.352-.108.504a1.132 1.132 0 0 1-.306.384 1.38 1.38 0 0 1-.468.252 2.096 2.096 0 0 1-.612.084 1.816 1.816 0 0 1-.912-.228 1.795 1.795 0 0 1-.3-.24 2.363 2.363 0 0 1-.222-.282l.498-.39c.052.084.106.162.162.234.06.068.126.128.198.18a1.032 1.032 0 0 0 .576.156c.256 0 .452-.06.588-.18.136-.124.204-.294.204-.51v-.042c0-.216-.072-.38-.216-.492-.144-.112-.348-.168-.612-.168h-.444v-.576h.426ZM8.545 28.166c-.26 0-.486-.048-.678-.144-.192-.1-.35-.242-.474-.426a1.975 1.975 0 0 1-.276-.678 4.224 4.224 0 0 1-.09-.918c0-.34.03-.644.09-.912.06-.272.152-.5.276-.684.124-.184.282-.324.474-.42.192-.1.418-.15.678-.15.52 0 .902.19 1.146.57.248.38.372.912.372 1.596s-.124 1.216-.372 1.596c-.244.38-.626.57-1.146.57Zm0-.576a.74.74 0 0 0 .366-.084.692.692 0 0 0 .252-.252c.064-.108.11-.236.138-.384a2.79 2.79 0 0 0 .042-.504v-.732c0-.184-.014-.35-.042-.498a1.18 1.18 0 0 0-.138-.39.7.7 0 0 0-.618-.336.732.732 0 0 0-.372.09.66.66 0 0 0-.246.246 1.18 1.18 0 0 0-.138.39 2.691 2.691 0 0 0-.042.498v.732c0 .184.014.352.042.504.028.148.074.276.138.384a.708.708 0 0 0 .246.252.774.774 0 0 0 .372.084ZM12.143 28.166c-.26 0-.486-.048-.678-.144-.192-.1-.35-.242-.474-.426a1.975 1.975 0 0 1-.276-.678 4.224 4.224 0 0 1-.09-.918c0-.34.03-.644.09-.912.06-.272.152-.5.276-.684.124-.184.282-.324.474-.42.192-.1.418-.15.678-.15.52 0 .902.19 1.146.57.248.38.372.912.372 1.596s-.124 1.216-.372 1.596c-.244.38-.626.57-1.146.57Zm0-.576a.74.74 0 0 0 .366-.084.692.692 0 0 0 .252-.252c.064-.108.11-.236.138-.384a2.79 2.79 0 0 0 .042-.504v-.732c0-.184-.014-.35-.042-.498a1.18 1.18 0 0 0-.138-.39.7.7 0 0 0-.618-.336.732.732 0 0 0-.372.09.66.66 0 0 0-.246.246 1.18 1.18 0 0 0-.138.39 2.691 2.691 0 0 0-.042.498v.732c0 .184.014.352.042.504.028.148.074.276.138.384a.708.708 0 0 0 .246.252.774.774 0 0 0 .372.084Z" fill="#fff"/><path d="M29.5 20H29a.5.5 0 0 1 0-1h.5a.5.5 0 0 1 0 1ZM27 20h-1a.5.5 0 0 1 0-1h1a.5.5 0 0 1 0 1Zm-3 0h-1a.5.5 0 0 1 0-1h1a.5.5 0 0 1 0 1Zm-3 0h-1a.5.5 0 0 1 0-1h1a.5.5 0 0 1 0 1Zm-3 0h-1a.5.5 0 0 1 0-1h1a.5.5 0 0 1 0 1Zm-3 0h-1a.5.5 0 0 1 0-1h1a.5.5 0 0 1 0 1Zm-3 0h-1a.5.5 0 0 1 0-1h1a.5.5 0 0 1 0 1Zm-3 0H8a.5.5 0 0 1 0-1h1a.5.5 0 0 1 0 1Zm-3 0H5a.5.5 0 0 1 0-1h1a.5.5 0 0 1 0 1ZM3 20h-.5a.5.5 0 0 1 0-1H3a.5.5 0 0 1 0 1ZM29.5 9H29a.5.5 0 0 1 0-1h.5a.5.5 0 0 1 0 1ZM27 9h-1a.5.5 0 0 1 0-1h1a.5.5 0 0 1 0 1Zm-3 0h-1a.5.5 0 0 1 0-1h1a.5.5 0 0 1 0 1Zm-3 0h-1a.5.5 0 0 1 0-1h1a.5.5 0 0 1 0 1Zm-3 0h-1a.5.5 0 0 1 0-1h1a.5.5 0 0 1 0 1Zm-3 0h-1a.5.5 0 0 1 0-1h1a.5.5 0 0 1 0 1ZM9 9H8a.5.5 0 0 1 0-1h1a.5.5 0 0 1 0 1ZM6 9H5a.5.5 0 0 1 0-1h1a.5.5 0 0 1 0 1Z" fill="#E4E4E4"/><path d="m29.85 25.15-2-2a.361.361 0 0 0-.16-.11.5.5 0 0 0-.38 0 .36.36 0 0 0-.16.11l-2 2a.495.495 0 1 0 .7.7L27 24.71v4.79a.5.5 0 1 0 1 0v-4.79l1.15 1.14a.48.48 0 0 0 .7 0 .48.48 0 0 0 0-.7Z" fill="#84AAAF"/><path d="M28.5 2a1.5 1.5 0 0 0-.92 2.68L23.8 16c-.1-.01-.2-.01-.3 0-.16 0-.319.028-.47.08l-2.37-5.63c.07-.09.13-.188.18-.29.072-.118.125-.246.16-.38.01-.09.01-.18 0-.27v-.06a.45.45 0 0 0 0-.11 1.11 1.11 0 0 0-.05-.25.13.13 0 0 0 0-.06 1.18 1.18 0 0 0-.19-.37l-.05-.06a1.331 1.331 0 0 0-.27-.26 1.66 1.66 0 0 0-.44-.25h-.09a1.76 1.76 0 0 0-.4-.06 1.55 1.55 0 0 0-.43.07H19l-.15.07-.12.06-.12.09-.11.09-.09.11a.52.52 0 0 0-.1.11.752.752 0 0 0-.07.12.54.54 0 0 0-.07.13.688.688 0 0 0-.05.13l-.12.14v.14a.807.807 0 0 0 0 .16.09.09 0 0 0 0 .05V9.98c.069.194.178.371.32.52L15.68 16H15.35l-2.67-5.61A1.46 1.46 0 0 0 13 9.5a1.5 1.5 0 0 0-3 0c0 .33.113.652.32.91L7.65 16H7.32l-2.74-5.46A1.5 1.5 0 1 0 3.5 11h.18l2.74 5.48a1.5 1.5 0 1 0 2.14 0l2.6-5.48c.224.053.457.053.68 0l2.6 5.48a1.5 1.5 0 1 0 2.14 0L19.32 11H19.79l2.43 5.77a1.41 1.41 0 0 0-.22.76 1.5 1.5 0 0 0 3 0 1.53 1.53 0 0 0-.33-.93L28.53 5a1.5 1.5 0 0 0 0-3h-.03Zm-25 8a.5.5 0 1 1 0-1 .5.5 0 0 1 0 1Zm4 8a.5.5 0 1 1 0-1 .5.5 0 0 1 0 1Zm4-8a.5.5 0 1 1 0-1 .5.5 0 0 1 0 1Zm4 8a.5.5 0 1 1 0-1 .5.5 0 0 1 0 1Zm4-8a.5.5 0 1 1 0-1 .5.5 0 0 1 0 1Zm4 8a.5.5 0 1 1 0-1 .5.5 0 0 1 0 1Zm5-14a.5.5 0 1 1 0-1 .5.5 0 0 1 0 1Z" fill="#58595B"/></svg>
